X:21013
T:BIDDY EARLY (hornpipe) 
B:DMI.0946
Z:Nordberg/Black
R:hornpipe
%Q:1/4=150
M:C
L:1/8
K:G
"A dorian"
B|c2cB cdeg|dedB GABd|cAA2 ecAc|dcBA GABd|
c2cA cdeg|dedB GABd|cBAg edcB|c2A2A2:|
ef|gfga gedc|BcdB GABd|agab agea|gede cdef|
geaf gedB|cBAB cdea|gfge dfed|c2A2A2:|

%%%

